icons/Document/draft-fill.svg

<svg viewBox="0 0 24 24" xmlns="http://www.w3.org/2000/svg"><path d="M20 2C20.5523 2 21 2.44772 21 3V6.757L12.0012 15.7562L11.995 19.995L16.2414 20.0012L21 15.242V21C21 21.5523 20.5523 22 20 22H4C3.44772 22 3 21.5523 3 21V3C3 2.44772 3.44772 2 4 2H20ZM21.7782 8.80761L23.1924 10.2218L15.4142 18L13.9979 17.9979L14 16.5858L21.7782 8.80761ZM12 12H7V14H12V12ZM15 8H7V10H15V8Z"/></svg>

<svg xmlns="http://www.w3.org/2000/svg" viewBox="0 0 24 24">
    <g>
        <path fill="none" d="M0 0L24 0 24 24 0 24z"/>
        <path d="M20 2c.552 0 1 .448 1 1v3.757l-8.999 9-.006 4.238 4.246.006L21 15.242V21c0 .552-.448 1-1 1H4c-.552 0-1-.448-1-1V3c0-.552.448-1 1-1h16zm1.778 6.808l1.414 1.414L15.414 18l-1.416-.002.002-1.412 7.778-7.778zM12 12H7v2h5v-2zm3-4H7v2h8V8z"/>
    </g>
</svg>
